X:505
T: Barr na Cuile
C: Neilidh Mulligan
Z: B.Black
S: "Lamh ar Lamh" v1, tr 6
D: Noel Hill
L: 1/8
M: 4/4
R: reel
K: E
BA|GB B2 ceef|g2 eg fg e2|GB B2 Acea|gefg e2 :|
ef|g2 bg a2 c'a|gbbg (3fgf e2|gbbg abc'a|gefg e2 :|
